X:5782
T:Gan Ainm
R:Reel
S:
H:
N:
D:Cherish The Ladies
Z:Adrian Scahill
M:4/4
L:1/8
K:A
cEE2 cBAc|B2Ac BAFD|E3e fecA|BAFA B2AB|\
cafe fecA|B2AB cBAF|E3e fecA|1 BAGB A3B:|2 BAGB A3f||\
eAcf eAcf|e2cA BAFA|E3e fecA|BAFA B2AB|\
cafe fecA|B2AB cBAF|E3e fecA|1 BAGB A3f:|2 BAGB A3B||
